X:1
T:James Gibb editions
T:Still will we trust - Barnby
%%score [ ( 1 2 ) ( 3 4 ) ]
L:1/8
Q:1/4=112
M:4/4
K:Eb
V:1 treble nm="Midi_74"
V:2 treble 
V:3 bass nm="Midi_74"
V:4 bass 
V:1
"^Diadema (11 10. 11 6)""^Still will we trust""^William H. Burleigh\n(1812-71)""^Joseph Barnby\n(1838-96)" G4 B2 e2 | %1
 d6 c2 | B2 G2 E2 F2 | F4 G4 || A4 A2 G2 | c6 B2 | B2 A2 C2 G2 | F8 ||[M:4/4] G4 F2 E2 | c6 c2 | %10
 c2 c2 f2 e2 | e4 d4 || e4 G2 B2 | E6 F2 | G8 || A4 G4 |] %16
V:2
 E4 G2 G2 | A6 D2 | E2 E2 E2 D2 | D4 E4 || E4 =E2 E2 | F6 G2 | C2 C2 C2 C2 | D8 || %8
[M:4/4] _D4 D2 D2 | C6 =E2 | F2 G2 =A2 A2 | !courtesy!_A4 A4 || G4 E2 _D2 | C6 E2 | E8 || E4 E4 |] %16
V:3
 B,4 B,2 B,2 | B,6 A,2 | B,2 B,2 C2 _C2 | _C4 B,4 || A,4 C2 C2 | C6 C2 | C2 C2 A,2 A,2 | A,8 || %8
[M:4/4] B,4 A,2 G,2 | %9
"^1. Still will we trust, though earth seem dark and dreary,\nAnd the heart faint beneath His chastening rod;\nThough rough and steep our pathway, worn and weary,\nStill will we trust in God!\n\n2. Our eyes see dimly till by faith anointed,\nAnd our blind choosing brings us grief and pain;\nThrough Him alone who hath our way appointed,\nWe find our peace again.\n\n3. Choose for us, God! Nor let our weak preferring\nCheat our poor souls of good Thou has designed;\nChoose for us, God! Thy wisdom is unerring,\nAnd we are fools and blind.\n\n4. So from our sky the night shall furl her shadows,\nAnd day pour gladness through his golden gates,\nOur rough path lead to flower-enameled meadows,\nWhere joy our coming waits.\n\n5. Let us press on, in patient self denial,\nAccept the hardship, shrink not from the loss;\nOur portion lies beyond the hour of trial,\nOur crown beyond the cross." A,6 B,2 | %10
 =A,2 B,2 C2 F2 | F4 F4 || E4 _D2 B,2 | (B,4 A,2) C2 | B,8 || C4 B,4 |] %16
V:4
 E,4 E,2 E,2 | F,6 F,2 | G,2 G,2 A,2 A,2 | E,4 (E,2 D,2) || C,4 C2 B,2 | A,6 =E,2 | %6
 F,2 F,2 A,,2 A,,2 | B,,8 ||[M:4/4] E,4 E,2 E,2 | A,6 G,2 | F,2 F,2 F,2 F,2 | B,4 B,,4 || %12
 C,4 B,,2 G,,2 | A,,6 A,,2 | E,8 || A,,4 E,4 |] %16

